X:8019
T:West Side Trows Reel
N:heard from the fairies by Hakki Johnson in Aithsting, 1790
O:England
M:4/4
L:1/8
K:Ador
a|fdfd fd2a|fdfd eB2g|({fg}f2)({fg}f)e defd|({ef}e2)fd eB2||
f|adfd ad2f|adfd eB2g|({fg}f2)({fg}f)e defd|({ef}e2)fd eA2||
Permission is granted to copy and distribute modified
or unmodified versions of this music provided the copyright
notice and this permission notice are preserved on all
copies and the entire such work is distributed under the
terms of a permission notice identical to this one.
I am unable to guarantee that all of these tunes
are free of copyright restrictions in all countries.
I am grateful to Deborah Jones (inielsen@portal.ca)
and Vancouver International Folk Dancing for allowing
me to place many of her transcriptions in abc format
on the web.
Richard Geisler has graciously allowed me to place
a small selection of his transciptions on the internet.
Other of his transcriptions in paper format can be obtained
directly from him at: MUSIC FOR YOUR FAVORITE
INTERNATIONAL & BALKAN FOLK DANCES,
15182 Ballantree Ln, Grass Valley, California, 95949 USA.
Music sources are as indicated. In many cases there
are either simplifications added guitar chords (with
the help of abcmus).
seymour.shlien@crc.ca


